!!!!SEGMENT: pl-kk--kk-i-272--001_anonim--rorate-caeli.krn
!!!cenid: 17xx:2070
!!!COM: Anonim
!!!COM-rismid: pe30004985
!!!CDT:
!!!CNT:
!!!OTL: Rorate caeli
!!!PDT:
!!!AGN: Sacred
!!!SMS-siglum: PL-Kk
!!!SMS-shelfmark: Kk.I.272
!!!SMS-shelfwork: 001 W
!!!SMS-variant:
!!!SMS-altvar:
!!!NIFC-rismid: 1001147274
!!!URL-scan: http://repozytorium.nifc.pl/skany/pl-kk-nut--i-272
!!!ONB-nifc: UWAGA: utwory w zbiorze: 1. Rorate caeli, 2. Tollite portas, 3. Alleluia. Post partum Virgo
!!!AIN: 1 alto 1 empty 1 tenor 1 vox
!!!key:
**kern	**text	**text	**kern	**text	**text	**kern	**text	**text	**kern	**text	**text
*part4	*part4	*part4	*part3	*part3	*part3	*part2	*part2	*part2	*part1	*part1	*part1
*staff4	*staff4	*staff4	*staff3	*staff3	*staff3	*staff2	*staff2	*staff2	*staff1	*staff1	*staff1
*Iempty	*	*	*Itenor	*	*	*Ialto	*	*	*Ivox	*	*
*I"Baſso.	*	*	*I"Tenore	*	*	*I"Alto.	*	*	*I"Canto.	*	*
*I'B	*	*	*I'T	*	*	*I'A	*	*	*I'S	*	*
*clefF4	*	*	*clefC4	*	*	*clefC3	*	*	*clefC1	*	*
*k[]	*	*	*k[]	*	*	*k[]	*	*	*k[]	*	*
*d:	*	*	*d:	*	*	*d:	*	*	*d:	*	*
*M2/2	*	*	*M2/2	*	*	*M2/2	*	*	*M2/2	*	*
*met(c|)	*	*	*met(c|)	*	*	*met(c|)	*	*	*met(c|)	*	*
=1	=1	=1	=1	=1	=1	=1	=1	=1	=1	=1	=1
!	!	!	!	!	!	!LO:TX:t=P:problem=2\right&colon; global	!	!	!	!	!
!	!	!	!	!	!	!LO:TX:a:i:t=à Capella	!	!	!	!	!
!LO:TX:a:i:t=ex Di à Capella	!	!	!LO:TX:a:i:t=à Capella	!	!	!	!	!	!LO:TX:t=P:problem=zapis metrum uzgodniony z Jackiem Iwaszko	!	!
!	!	!	!	!	!	!LO:TX:t=P:♮above:problem	!	!	!LO:TX:a:i:t=ex Di à Capella	!	!
*	*	*	*	*	*	*2\right	*	*	*	*	*
2.D/	Ro-	.	2.A/	Ro-	.	2.fn\	Ro-	.	4d/	Ro-	.
.	.	.	.	.	.	.	.	.	4e/	.	.
.	.	.	.	.	.	.	.	.	4f/	.	.
4E/	.	.	4G/	.	.	4e\	.	.	4g/	.	.
=2-	=2	=2	=2	=2	=2	=2	=2	=2	=2	=2	=2
*2\right	*	*	*	*	*	*	*	*	*2\right	*	*
2Fn\	-ra-	.	4F/	-ra-	.	(4d\	-ra-	.	2a\	-ra-	.
.	.	.	4G/	.	.	4e\	.	.	.	.	.
!	!	!	!	!	!	!	!	!	!LO:TX:t=P:global:problem=oddech jako rozdzielacz słów	!	!
2D/	-te	.	4A/	.	.	4f\	.	.	2a,<\	-te	.
.	.	.	4B/	.	.	4d\)	.	.	.	.	.
=3	=3	=3	=3-	=3	=3	=3	=3	=3	=3	=3	=3
*	*	*	*2\right	*	*	*	*	*	*	*	*
2.AA/	ro-	.	2c\	.	.	2e\	.	.	4a\	Cae-	.
.	.	.	.	.	.	.	.	.	4bn\	.	.
!	!	!	!	!	!	!LO:TX:t=P:global:problem=oddech jako rozdzielacz słów	!	!	!	!	!
.	.	.	2c\	-te	.	2e,<\	-te	.	4cc\	.	.
4BB/	.	.	.	.	.	.	.	.	8b\L	.	.
.	.	.	.	.	.	.	.	.	8a\J	.	.
=4	=4	=4	=4	=4	=4	=4	=4	=4	=4	=4	=4
4C/	.	.	1r	.	.	4e\	Cae-	.	2g/	.	.
4D/	.	.	.	.	.	4f\	.	.	.	.	.
4E/	.	.	.	.	.	4g\	.	.	2g/	-li	.
4F/	.	.	.	.	.	8f\L	.	.	.	.	.
.	.	.	.	.	.	8e\J	.	.	.	.	.
=5	=5	=5	=5	=5	=5	=5	=5	=5	=5	=5	=5
2G\	-ra-	.	4G/	Cae-	.	2d\	.	.	4bn\	Cae-	.
.	.	.	4A/	.	.	.	.	.	4cc\	.	.
2G,<\	-te	.	4Bn/	.	.	2d,<\	-li	.	4dd\	.	.
.	.	.	8A/L	.	.	.	.	.	8cc\L	.	.
.	.	.	8G/J	.	.	.	.	.	8b\J	.	.
=6-	=6	=6	=6	=6	=6	=6	=6	=6	=6	=6	=6
2F\	Cae-	.	2A/	.	.	4d\	cae-	.	1a\	.	.
.	.	.	.	.	.	4e\	.	.	.	.	.
2D/	-li	.	2A/	-li	.	4f\	.	.	.	.	.
.	.	.	.	.	.	8e\L	.	.	.	.	.
.	.	.	.	.	.	8d\J	.	.	.	.	.
=7	=7	=7	=7	=7	=7	=7	=7	=7	=7	=7	=7
2.E\	de-	.	4E/	de-	.	2c,</	-li	.	1g\,<	-li	.
.	.	.	4F/	.	.	.	.	.	.	.	.
.	.	.	1G/	.	.	1e\	de-	.	.	.	.
4D/	.	.	.	.	.	.	.	.	.	.	.
=8-	=8	=8	=8-	=8	=8	=8-	=8	=8	=8	=8	=8
2C/	.	.	.	.	.	.	.	.	2e/	de-	.
4BB/	.	.	2E/	.	.	4d\	.	.	1a\	.	.
4AA/	.	.	.	.	.	4c\	.	.	.	.	.
=9	=9	=9	=9	=9	=9	=9	=9	=9	=9-	=9	=9
2BBn/	.	.	2.B\	.	.	2.d\	.	.	.	.	.
2BB/	-su-	.	.	.	.	.	.	.	2g#X\	-su-	.
.	.	.	4B\	-su-	.	4d\	-su-	.	.	.	.
=10	=10	=10	=10	=10	=10	=10	=10	=10	=10	=10	=10
2AA,</	-per	.	2E/	-per	.	2c#X,</	-per	.	1a\	-per	.
2A\	et	.	2r	.	.	2r	.	.	.	.	.
=11	=11	=11	=11	=11	=11	=11	=11	=11	=11	=11	=11
2F\	nu-	.	1A\	et	.	2a\	et	.	2r	.	.
2D/	-bes	.	.	.	.	2f#X\	nu-	.	2dd\	et	.
=12	=12	=12	=12-	=12	=12	=12	=12	=12	=12	=12	=12
2.G\	plu-	.	2B\	nu-	.	2d\	-bes	.	2bn\	nu-	.
.	.	.	2d\	-bes	.	2.g\	plu-	.	2g\	-bes	.
4F\	.	.	.	.	.	.	.	.	.	.	.
=13	=13	=13	=13	=13	=13	=13-	=13	=13	=13	=13	=13
4E\	.	.	2G/	plu-	.	.	.	.	2.cc\	plu-	.
4D\	.	.	.	.	.	4fn\	.	.	.	.	.
2C/	-ant	.	2G/	-ant	.	4e\	.	.	.	.	.
*	*	*	*	*	*	*custos:d	*	*	*custos:a	*	*
.	.	.	.	.	.	4d\	.	.	4b\	.	.
=14	=14	=14	=14-	=14	=14	=14	=14	=14	=14	=14	=14
!	!	!	!	!	!	!LO:LB:g=original	!	!	!LO:LB:g=original	!	!
00r	.	.	2.F/	Ju-	.	2d,<\	-ant	.	4a\	.	.
.	.	.	.	.	.	.	.	.	4g\	.	.
.	.	.	.	.	.	1d\	Ju-	.	2f,</	-ant	.
.	.	.	4G/	.	.	.	.	.	.	.	.
=15	=15	=15	=15-	=15	=15	=15-	=15	=15	=15	=15	=15
.	.	.	1A\	.	.	.	.	.	1e/	Ju-	.
.	.	.	.	.	.	2c#X\	.	.	.	.	.
=16	=16	=16	=16-	=16	=16	=16	=16	=16	=16-	=16	=16
.	.	.	2D,</	-stum	.	1d\	-stum	.	2d/	-stum	.
*	*	*	*custos:B	*	*	*	*	*	*	*	*
.	.	.	2d\	et	.	.	.	.	2r	.	.
=17	=17	=17	=17	=17	=17	=17	=17	=17	=17	=17	=17
!	!	!	!LO:LB:g=original	!	!	!	!	!	!	!	!
.	.	.	2B\	nu-	.	2r	.	.	2dd\	et	.
.	.	.	2G/	-bes	.	2g\	et	.	2bn\	nu-	.
=18	=18	=18	=18	=18	=18	=18	=18	=18	=18	=18	=18
0r	.	.	2.c\	plu-	.	2e\	nu-	.	2g,<\	-bes	.
.	.	.	.	.	.	2c/	-bes	.	[<2cc\	plu-	.
.	.	.	4B\	.	.	.	.	.	.	.	.
=19	=19	=19	=19	=19	=19	=19	=19	=19	=19	=19	=19
!	!	!	!	!	!	!	!	!	!LO:N:xstem:cue	!	!
.	.	.	4A/	.	.	(2.f\	plu-	.	4cc\]	.	.
.	.	.	4G/	.	.	.	.	.	4b\	.	.
.	.	.	[<2F/	.	.	.	.	.	1a\	-ant-	.
.	.	.	.	.	.	4e\)	.	.	.	.	.
=20	=20	=20	=20	=20	=20	=20	=20	=20	=20-	=20	=20
!LO:LB:g=original	!	!	!LO:N:xstem:cue	!	!	!	!	!	!	!	!
2r	.	.	4F/]	.	.	1d\	-ant	.	.	.	.
.	.	.	4E/	.	.	.	.	.	.	.	.
2D/	et	.	2D/	.	.	.	.	.	2f#X/	-ju-	.
=21	=21	=21	=21-	=21	=21	=21	=21	=21	=21	=21	=21
2BB/	nu-	.	1G/	-ant	.	2r	.	.	1d/,<	-stum	.
2GG/	-bes	.	.	.	.	2g\	et	.	.	.	.
=22	=22	=22	=22	=22	=22	=22	=22	=22	=22	=22	=22
2.C/	plu-	.	2r	.	.	2e\	nu-	.	2r	.	.
.	.	.	2G/	et	.	2c/	-bes	.	2ee\	et	.
4BB/	.	.	.	.	.	.	.	.	.	.	.
=23	=23	=23	=23	=23	=23	=23	=23	=23	=23	=23	=23
4AA/	.	.	2c\	nu-	.	(2.e\	plu-	.	2cc\	nu-	.
(4BB/	.	.	.	.	.	.	.	.	.	.	.
4C/	.	.	2c\	-bes	.	.	.	.	2a\	-bes	.
4D/)	.	.	.	.	.	4f#X\)	.	.	.	.	.
=24-	=24	=24	=24	=24	=24	=24	=24	=24	=24	=24	=24
1E\	-ant	.	2.B\	plu-	.	2g\	-ant	.	(4g\	plu-	.
.	.	.	.	.	.	.	.	.	4a\)	.	.
.	.	.	.	.	.	1g\	Ju-	.	(4b\	-ant	.
.	.	.	4c#X\	-ant	.	.	.	.	4g\)	.	.
=25	=25	=25	=25	=25	=25	=25-	=25	=25	=25	=25	=25
1D\	Ju-	.	1d\	Ju-	.	.	.	.	1a\	Ju-	.
.	.	.	.	.	.	2f#X\	.	.	.	.	.
=26-	=26	=26	=26-	=26	=26	=26	=26	=26	=26-	=26	=26
2GG,</	-stum	.	2B,<\	-stum	.	2g,<\	-stum	.	1bn\,<	-stum	.
2G\	a-	.	2B\	a-	.	2d\	a-	.	.	.	.
=27	=27	=27	=27	=27	=27	=27	=27	=27	=27	=27	=27
2F#X\	-pe-	.	2A/	-pe-	.	2d\	-pe-	.	0r	.	.
2G\	-ri-	.	2B\	-ri-	.	2d\	-ri-	.	.	.	.
=28	=28	=28	=28-	=28	=28	=28	=28	=28	=28	=28	=28
1E\	-a-	.	1G/	-a-	.	(2d\	-a-	.	.	.	.
.	.	.	.	.	.	2c#X/)	.	.	.	.	.
=29-	=29	=29	=29	=29	=29	=29	=29	=29	=29	=29	=29
2D,</	-tur	.	1A\,<	-tur	.	2d,<\	-tur	.	2r	.	.
*	*ij	*	*	*	*	*	*	*	*	*	*
2D/	a-	.	.	.	.	2f\	a-	.	2a\	a-	.
=30	=30	=30	=30	=30	=30	=30	=30	=30	=30	=30	=30
2C#X/	-pe-	.	1r	.	.	2e\	-pe-	.	2a\	-pe-	.
*	*	*	*	*	*	*custos:d	*	*	*	*	*
2D/	-ri-	.	.	.	.	2f\	-ri-	.	2a\	-ri-	.
=31-	=31	=31	=31	=31	=31	=31	=31	=31	=31	=31	=31
!	!	!	!	!	!	!LO:LB:g=original	!	!	!	!	!
1BB-X/	-a-	.	4D/	ter-	.	1d\	-a-	.	2a\	-a-	.
.	.	.	4E/	.	.	.	.	.	.	.	.
*	*	*	*	*	*	*	*	*	*custos:e	*	*
.	.	.	4F/	.	.	.	.	.	2g/	-tur	.
.	.	.	4G/	.	.	.	.	.	.	.	.
=32-	=32	=32	=32	=32	=32	=32	=32	=32	=32	=32	=32
!	!	!	!	!	!	!	!	!	!LO:LB:g=original	!	!
2AA,</	-tur	.	4A\	.	.	2c#X,</	-tur	.	2e/	ter-	.
*	*Xij	*	*	*	*	*	*	*	*	*	*
.	.	.	4B\	.	.	.	.	.	.	.	.
[<2FF/	ter-	.	2c\	.	.	[<2f\	ter-	.	2a\	.	.
=33	=33	=33	=33-	=33	=33	=33	=33	=33	=33	=33	=33
!LO:N:xstem:cue	!	!	!	!	!	!LO:N:xstem:cue	!	!	!	!	!
4FF/]	.	.	1F/	-ra	.	4f\]	.	.	2.cc\	.	.
4GG/	.	.	.	.	.	8e\L	.	.	.	.	.
.	.	.	.	.	.	8d\J	.	.	.	.	.
4AA/	.	.	.	.	.	4c\	.	.	.	.	.
4BB-X/	.	.	.	.	.	4d\	.	.	8b\L	.	.
.	.	.	.	.	.	.	.	.	8a\J	.	.
=34	=34	=34	=34	=34	=34	=34	=34	=34	=34	=34	=34
2C/	.	.	2r	.	.	4e\	.	.	2g/	.	.
.	.	.	.	.	.	4c\	.	.	.	.	.
*	*	*	*custos:d	*	*	*	*	*	*	*	*
2D\	.	.	2A\	ter-	.	2.f\	.	.	2f/	.	.
=35-	=35	=35	=35	=35	=35	=35-	=35	=35	=35	=35	=35
!	!	!	!LO:LB:g=original	!	!	!	!	!	!	!	!
2BB-X/	.	.	2d\	.	.	.	.	.	1g\	.	.
.	.	.	.	.	.	8e\L	.	.	.	.	.
.	.	.	.	.	.	8d\J	.	.	.	.	.
2C/	.	.	2c\	.	.	2e\	.	.	.	.	.
=36	=36	=36	=36-	=36	=36	=36	=36	=36	=36-	=36	=36
1F\,<	-ra	.	1A\	-ra	.	1f\,<	-ra	.	2f,</	-ra	.
.	.	.	.	.	.	.	.	.	2f/	et	.
=37	=37	=37	=37	=37	=37	=37	=37	=37	=37	=37	=37
!	!	!	!	!	!	!LO:TX:a:t=1.	!	!	!	!	!
0r	.	.	2r	.	.	1r	.	.	(4a\	ger-	.
.	.	.	.	.	.	.	.	.	4g\	.	.
.	.	.	2F/	et	.	.	.	.	4a\	.	.
.	.	.	.	.	.	.	.	.	4b\)	.	.
=38	=38	=38	=38	=38	=38	=38	=38	=38	=38	=38	=38
.	.	.	4A\	ger-	.	2r	.	.	2.cc\	.	.
.	.	.	4G\	.	.	.	.	.	.	.	.
.	.	.	4A\	.	.	2c/	et	.	.	.	.
.	.	.	4B\	.	.	.	.	.	4cc\	-mi-	.
=39	=39	=39	=39	=39	=39	=39	=39	=39	=39	=39	=39
2r	.	.	2.c\	.	.	(4e\	ger-	.	1g\	-net	.
.	.	.	.	.	.	4d\	.	.	.	.	.
*custos:E	*	*	*	*	*	*	*	*	*	*	*
2C/	et	.	.	.	.	4e\	.	.	.	.	.
.	.	.	4c\	-mi-	.	4f\)	.	.	.	.	.
=40	=40	=40	=40-	=40	=40	=40	=40	=40	=40	=40	=40
!LO:LB:g=original	!	!	!	!	!	!	!	!	!	!	!
(4E\	ger-	.	1G/	-net	.	2.g\	.	.	2r	.	.
4D\	.	.	.	.	.	.	.	.	.	.	.
4E\)	.	.	.	.	.	.	.	.	2g\	et	.
4F\	.	.	.	.	.	4g\	-mi-	.	.	.	.
=41	=41	=41	=41	=41	=41	=41-	=41	=41	=41	=41	=41
2.G\	.	.	2r	.	.	1d\,<	-net	.	(4bn\	ger-	.
.	.	.	.	.	.	.	.	.	4a\	.	.
.	.	.	2G/	et	.	.	.	.	4b\)	.	.
8F\L	.	.	.	.	.	.	.	.	4cc\	.	.
8E\J	.	.	.	.	.	.	.	.	.	.	.
=42-	=42	=42	=42	=42	=42	=42	=42	=42	=42	=42	=42
2D/	.	.	4A/	ger-	.	1r	.	.	2.dd\	.	.
.	.	.	4G/	.	.	.	.	.	.	.	.
2D/	-mi-	.	4A/	.	.	.	.	.	.	.	.
.	.	.	4F/	.	.	.	.	.	8cc\L	.	.
.	.	.	.	.	.	.	.	.	8b\J	.	.
=43	=43	=43	=43	=43	=43	=43	=43	=43	=43	=43	=43
2AA,</	-net	.	2.c\	.	.	2r	.	.	2.a\	.	.
2AA/	et	.	.	.	.	2c/	et	.	.	.	.
.	.	.	4c\	-mi-	.	.	.	.	4a\	-mi-	.
=44	=44	=44	=44-	=44	=44	=44	=44	=44	=44	=44	=44
4C/	ger-	.	1G/	-net	.	(4e\	ger-	.	2g,</	-net	.
4BB/	.	.	.	.	.	4d\	.	.	.	.	.
4C/	.	.	.	.	.	4e\)	.	.	2cc\	et	.
4D/	.	.	.	.	.	4f\	.	.	.	.	.
=45	=45	=45	=45	=45	=45	=45	=45	=45	=45	=45	=45
2.E\	.	.	2r	.	.	2.g\	.	.	(4bn\	ger-	.
.	.	.	.	.	.	.	.	.	4a\	.	.
*	*	*	*	*ij	*	*	*	*	*	*	*
.	.	.	2G/	et	.	.	.	.	4b\)	.	.
*	*	*	*	*	*	*	*	*	*custos:d	*	*
8D\L	.	.	.	.	.	8f#X\L	.	.	4cc\	.	.
8C\J	.	.	.	.	.	8e\J	.	.	.	.	.
=46	=46	=46	=46	=46	=46	=46	=46	=46	=46	=46	=46
!	!	!	!	!	!	!	!	!	!LO:LB:g=original	!	!
2.BB/	.	.	2.G/	ger-	.	2.d\	.	.	2.dd\	.	.
*	*	*	*	*	*	*custos:f#	*	*	*	*	*
4C/	.	.	4G/	-mi-	.	4e\	.	.	8cc\L	.	.
.	.	.	.	.	.	.	.	.	8b\J	.	.
=47-	=47	=47	=47-	=47	=47	=47	=47	=47	=47	=47	=47
!	!	!	!	!	!	!LO:LB:g=original	!	!	!	!	!
2.D\	.	.	2D,</	-net	.	4f#X\	.	.	2.a\	.	.
*	*	*	*	*Xij	*	*	*	*	*	*	*
.	.	.	.	.	.	2g\	.	.	.	.	.
.	.	.	[<2d\	Sal-	.	.	.	.	.	.	.
4D\	-mi-	.	.	.	.	4f#X\	-mi-	.	4a\	-mi-	.
=48-	=48	=48	=48	=48	=48	=48	=48	=48	=48	=48	=48
!	!	!	!LO:N:xstem:cue	!	!	!	!	!	!	!	!
2GG,</	-net	.	4d\]	.	.	1g\,<	-net	.	4g,</	-net	.
.	.	.	4c\	-va-	.	.	.	.	2dd\	Sal-	.
[<2G\	Sal-	.	[<2B\	-to-	.	.	.	.	.	.	.
.	.	.	.	.	.	.	.	.	4cc\	.	.
=49	=49	=49	=49	=49	=49	=49	=49	=49	=49	=49	=49
!LO:N:xstem:cue	!	!	!LO:N:xstem:cue	!	!	!	!	!	!	!	!
4G\]	.	.	4B\]	.	.	2r	.	.	2.b\	.	.
4F\	.	.	4A/	.	.	.	.	.	.	.	.
[<2E\	.	.	1G/	.	.	[<2g\	Sal-	.	.	.	.
.	.	.	.	.	.	.	.	.	4a\	-va-	.
=50	=50	=50	=50-	=50	=50	=50	=50	=50	=50	=50	=50
!LO:N:xstem:cue	!	!	!	!	!	!LO:N:xstem:cue	!	!	!	!	!
4E\]	.	.	.	.	.	4g\]	.	.	2g\	-to-	.
4D\	.	.	.	.	.	4fn\	.	.	.	.	.
2C/	.	.	2G/	-rem	.	(4e\	-va-	.	2cc\	.	.
.	.	.	.	.	.	4f\)	.	.	.	.	.
=51	=51	=51	=51	=51	=51	=51	=51	=51	=51	=51	=51
2BB/	-va-	.	1r	.	.	2g\	-to-	.	1g\	-rem	.
2C/	-to-	.	.	.	.	2e\	.	.	.	.	.
=52	=52	=52	=52	=52	=52	=52-	=52	=52	=52	=52	=52
2GG,</	-rem	.	2.d\	Sal-	.	1d\,<	-rem	.	2r	.	.
[<2G\	Sal-	.	.	.	.	.	.	.	[<2bn\	Sal-	.
.	.	.	4c\	-va-	.	.	.	.	.	.	.
=53	=53	=53	=53	=53	=53	=53	=53	=53	=53	=53	=53
!LO:N:xstem:cue	!	!	!	!	!	!	!	!	!LO:N:xstem:cue	!	!
4G\]	.	.	2.B\	-to-	.	2r	.	.	4b\]	.	.
4F\	.	.	.	.	.	.	.	.	4a\	.	.
!LO:TX:t=P:problem=kreska między nutą a kropką	!	!	!	!	!	!	!	!	!	!	!
2.E\	.	.	.	.	.	[<2g\	Sal-	.	1g\	-va-	.
*	*	*	*custos:B	*	*	*	*	*	*	*	*
.	.	.	4A\	.	.	.	.	.	.	.	.
=54	=54	=54	=54	=54	=54	=54	=54	=54	=54-	=54	=54
!	!	!	!LO:LB:g=original	!	!	!LO:N:xstem:cue	!	!	!	!	!
.	.	.	2B\	.	.	4g\]	.	.	.	.	.
4D/	.	.	.	.	.	4f\	.	.	.	.	.
1C/	.	.	2c\	.	.	[<2e\	-va-	.	4a\	-to-	.
.	.	.	.	.	.	.	.	.	4b\	.	.
=55-	=55	=55	=55-	=55	=55	=55	=55	=55	=55	=55	=55
*	*	*	*	*	*	*	*	*	*lig	*	*
!	!	!	!	!	!	!LO:N:xstem:cue	!	!	!	!	!
.	.	.	2G/	.	.	4e\]	.	.	1cc\	.	.
.	.	.	.	.	.	4d\	.	.	.	.	.
*custos:E	*	*	*	*	*	*	*	*	*	*	*
2AA/	-va-	.	1A\	.	.	4c\	.	.	.	.	.
.	.	.	.	.	.	4d\	.	.	.	.	.
=56	=56	=56	=56-	=56	=56	=56	=56	=56	=56	=56	=56
!LO:LB:g=original	!	!	!	!	!	!	!	!	!	!	!
1E\	-to-	.	.	.	.	1e\	-to-	.	1b\	.	.
.	.	.	2G#X/	.	.	.	.	.	.	.	.
*	*	*	*	*	*	*	*	*	*Xlig	*	*
=57-	=57	=57	=57	=57	=57	=57-	=57	=57	=57	=57	=57
2AA,</	-rem	.	2A,<\	-rem	.	1e\,<	-rem	.	1a\,<	-rem	.
[<2A\	Sal-	.	[<2c\	Sal-	.	.	.	.	.	.	.
=58	=58	=58	=58	=58	=58	=58	=58	=58	=58	=58	=58
!LO:N:xstem:cue	!	!	!LO:N:xstem:cue	!	!	!	!	!	!	!	!
4A\]	.	.	4c\]	.	.	2r	.	.	1r	.	.
4G\	.	.	4B\	.	.	.	.	.	.	.	.
[<2F\	.	.	4A\	-va-	.	[<2a\	Sal-	.	.	.	.
.	.	.	4c\	.	.	.	.	.	.	.	.
=59	=59	=59	=59	=59	=59	=59	=59	=59	=59	=59	=59
!LO:N:xstem:cue	!	!	!	!	!	!LO:N:xstem:cue	!	!	!	!	!
4F\]	.	.	2d\	.	.	4a\]	.	.	2.a\	Sal-	.
4E\	.	.	.	.	.	4g\	.	.	.	.	.
1D\	-va-	.	2A/	-to-	.	2f\	-va-	.	.	.	.
.	.	.	.	.	.	.	.	.	4g\	-va-	.
=60-	=60	=60	=60-	=60	=60	=60	=60	=60	=60	=60	=60
.	.	.	1A\,<	-rem	.	(2d\	-to-	.	2f/	-to-	.
2C#X/	-to-	.	.	.	.	2e\)	.	.	2e/	.	.
=61	=61	=61	=61	=61	=61	=61	=61	=61	=61	=61	=61
2D,</	-rem	.	1r	.	.	2f,<\	-rem	.	4d/	.	.
.	.	.	.	.	.	.	.	.	4e/	.	.
[<2D/	Sal-	.	.	.	.	1d\	Sal-	Al-	4f/	.	.
*	*	*	*	*	*	*	*	*	*custos:a	*	*
.	.	.	.	.	.	.	.	.	4g/	.	.
=62	=62	=62	=62-	=62	=62	=62-	=62	=62	=62	=62	=62
!LO:N:xstem:cue	!	!	!	!	!	!	!	!	!LO:LB:g=original	!	!
4D\]	.	.	2r	.	.	.	.	.	2a\	.	.
4C/	.	.	.	.	.	.	.	.	.	.	.
[<2BB-X/	.	.	[<2d\	Sal-	.	2d\	-va-	-le-	[<2b-X\	.	.
=63	=63	=63	=63	=63	=63	=63	=63	=63	=63	=63	=63
!LO:N:xstem:cue	!	!	!LO:N:xstem:cue	!	!	!	!	!	!LO:N:xstem:cue	!	!
4BB-/]	.	.	4d\]	.	.	0d\	-to-	-lu-	4b-\]	.	.
4AA/	.	.	4c\	-va-	.	.	.	.	4cc\	.	.
1GG/	-va-	.	1B-X\	-to-	.	.	.	.	4dd\	.	.
.	.	.	.	.	.	.	.	.	4dd,<\	-rem	.
=64-	=64	=64	=64-	=64	=64	=64-	=64	=64	=64	=64	=64
.	.	.	.	.	.	.	.	.	2.dd\	Sal-	.
2FF#X/	-to-	.	2A/	.	.	.	.	.	.	.	.
.	.	.	.	.	.	.	.	.	4cc\	-va-	.
=65	=65	=65	=65	=65	=65	=65-	=65	=65	=65	=65	=65
!	!	!	!	!	!	!LO:TX:a:t=6	!	!	!	!	!
2GG,</	-rem	.	2G/	.	.	00.d\;	-rem	-ia.	2b-X\	-to-	.
2D\	Sal-	Al-	2F#X/	.	.	.	.	.	2a\	.	.
=66	=66	=66	=66	=66	=66	=66-	=66	=66	=66	=66	=66
2.GG/	.	.	2G,</	-rem.	.	.	.	.	4g\	.	.
.	.	.	.	.	.	.	.	.	4a\	.	.
.	.	.	1d\	Sal-	Al-	.	.	.	4b-y\	.	.
4AA/	.	.	.	.	.	.	.	.	8a\L	.	.
.	.	.	.	.	.	.	.	.	8g\J	.	.
=67	=67	=67	=67-	=67	=67	=67-	=67	=67	=67	=67	=67
2BB-X/	.	.	.	.	.	.	.	.	2f,</	-rem.	.
2AA/	.	.	2c\	-va-	-le-	.	.	.	4f#X/	Sal-	Al-
.	.	.	.	.	.	.	.	.	4f#/	-va-	-le-
=68	=68	=68	=68	=68	=68	=68-	=68	=68	=68	=68	=68
2GG/	.	.	2B-X\	-to-	-lu-	.	.	.	2g/	-to-	-lu-
2FF#X/	-va-	-le-	[<2A/	.	.	.	.	.	2a\	.	.
=69	=69	=69	=69	=69	=69	=69-	=69	=69	=69	=69	=69
!	!	!	!LO:N:xstem:cue	!	!	!	!	!	!	!	!
1GG/	-to-	-lu-	4A\]	.	.	.	.	.	2.b-X\	.	.
.	.	.	8G/L	.	.	.	.	.	.	.	.
.	.	.	8F#X/J	.	.	.	.	.	.	.	.
.	.	.	2G/	.	.	.	.	.	.	.	.
.	.	.	.	.	.	.	.	.	8a\L	.	.
.	.	.	.	.	.	.	.	.	8g\J	.	.
=70-	=70	=70	=70-	=70	=70	=70-	=70	=70	=70-	=70	=70
!LO:N:vis=0	!	!	!LO:N:vis=0	!	!	!	!	!	!LO:N:vis=0	!	!
1D\;	-rem	-ia.	1F#X/;	-rem.	-ia.	.	.	.	1a\;	-rem.	-ia
=71||	=71||	=71||	=71||	=71||	=71||	=71||	=71||	=71||	=71||	=71||	=71||
*M2/2	*	*	*M2/2	*	*	*M2/2	*	*	*M2/2	*	*
*met(c|)	*	*	*met(c|)	*	*	*met(c|)	*	*	*met(c|)	*	*
!LO:TX:b:i:t=Benedixiſti	!	!	!LO:LB:g=original	!	!	!LO:LB:g=original	!	!	!	!	!
!LO:LB:g=original	!	!	!	!	!	!	!	!	!	!	!
00r	.	.	2.d\	Be-	.	2.f\	Be-	.	0f/	Be-	.
.	.	.	4c\	.	.	4e\	.	.	.	.	.
=72	=72	=72	=72	=72	=72	=72	=72	=72	=72-	=72	=72
.	.	.	2B-X\	-ne-	.	2d\	-ne-	.	.	.	.
.	.	.	2A\	-di-	.	[<2f\	-di-	.	.	.	.
=73	=73	=73	=73-	=73	=73	=73	=73	=73	=73-	=73	=73
!	!	!	!	!	!	!LO:N:xstem:cue	!	!	!	!	!
.	.	.	1c\	-xi-	.	4f\]	.	.	1g\	-ne-	.
.	.	.	.	.	.	8e\L	.	.	.	.	.
.	.	.	.	.	.	8d\J	.	.	.	.	.
.	.	.	.	.	.	2e\	-xi-	.	.	.	.
=74	=74	=74	=74-	=74	=74	=74	=74	=74	=74-	=74	=74
.	.	.	2F,</	-sti	.	1f\,<	-sti	.	1a\	-di-	.
.	.	.	[<2D/	Do-	.	.	.	.	.	.	.
=75	=75	=75	=75	=75	=75	=75	=75	=75	=75-	=75	=75
!	!	!	!LO:N:xstem:cue	!	!	!	!	!	!	!	!
00r	.	.	4D/]	.	.	2.f\	Do-	.	1a\	-xi-	.
.	.	.	4E/	.	.	.	.	.	.	.	.
.	.	.	4F/	.	.	.	.	.	.	.	.
.	.	.	4G/	.	.	8e\L	.	.	.	.	.
.	.	.	.	.	.	8d\J	.	.	.	.	.
=76	=76	=76	=76	=76	=76	=76	=76	=76	=76-	=76	=76
.	.	.	2.A\	.	.	2.c#X\	.	.	1a\,<	-sti	.
.	.	.	4B\	.	.	4d\	.	.	.	.	.
=77	=77	=77	=77	=77	=77	=77	=77	=77	=77	=77	=77
.	.	.	2c#X\	.	.	2e\	.	.	1.a\	Do-	.
.	.	.	1d\	.	.	2f\	.	.	.	.	.
=78	=78	=78	=78-	=78	=78	=78	=78	=78	=78-	=78	=78
.	.	.	.	.	.	2.e\	.	.	.	.	.
.	.	.	2c#X\	-mi-	.	.	.	.	2a\	-mi-	.
.	.	.	.	.	.	4e\	-mi-	.	.	.	.
=79	=79	=79	=79	=79	=79	=79	=79	=79	=79-	=79	=79
*	*	*	*	*	*	*	*	*	*custos:b-	*	*
00rG	.	.	2d,<\	-ne	.	2f,<\	-ne	.	0a\,<	-ne	.
.	.	.	2.f\	ter-	.	[<2a\	ter-	.	.	.	.
=80	=80	=80	=80-	=80	=80	=80	=80	=80	=80-	=80	=80
!	!	!	!	!	!	!LO:N:xstem:cue	!	!	!	!	!
.	.	.	.	.	.	4a\]	.	.	.	.	.
.	.	.	4e\	.	.	4g\	.	.	.	.	.
.	.	.	4d\	.	.	4f\	.	.	.	.	.
.	.	.	4c\	.	.	4e\	.	.	.	.	.
=81	=81	=81	=81	=81	=81	=81	=81	=81	=81	=81	=81
!	!	!	!	!	!	!	!	!	!LO:LB:g=original	!	!
.	.	.	2B-X\	.	.	2d,<\	-ram	.	2b-X\	ter-	.
.	.	.	2A,<\	-ram	.	1f\	tu-	.	2cc,<\	-ram	.
=82	=82	=82	=82-	=82	=82	=82-	=82	=82	=82-	=82	=82
*	*	*	*	*	*	*	*	*	*lig	*	*
.	.	.	(2B-X\	tu-	.	.	.	.	1g\	tu-	.
.	.	.	2c\)	.	.	2e\	.	.	.	.	.
=83	=83	=83	=83-	=83	=83	=83-	=83	=83	=83-	=83	=83
1r	.	.	1F/	-am	.	1f\	-am	.	1a\	.	.
*	*	*	*	*	*	*	*	*	*Xlig	*	*
=84	=84	=84	=84	=84	=84	=84	=84	=84	=84-	=84	=84
2.F\	A-	.	2r	.	.	2r	.	.	1f/,<	-am	.
.	.	.	1A/	a-	.	1f\	a-	.	.	.	.
4E\	-ver-	.	.	.	.	.	.	.	.	.	.
=85	=85	=85	=85-	=85	=85	=85-	=85	=85	=85	=85	=85
2D/	-ti-	.	.	.	.	.	.	.	1f/	a-	.
*	*	*	*	*	*	*custos:f	*	*	*	*	*
2C/	.	.	2A/	-ver-	.	2e\	-ver-	.	.	.	.
=86	=86	=86	=86	=86	=86	=86	=86	=86	=86-	=86	=86
!	!	!	!	!	!	!LO:LB:g=original	!	!	!	!	!
1BB-X/	.	.	1d\	-ti-	.	2f\	-ti-	.	1g\	-ver-	.
.	.	.	.	.	.	4e\	.	.	.	.	.
.	.	.	.	.	.	4d\	.	.	.	.	.
=87-	=87	=87	=87	=87	=87	=87	=87	=87	=87-	=87	=87
!	!	!	!	!	!	!	!	!	!LO:TX:a:t=4	!	!
4AA,</	-sti	.	4c#X,<\	-ſti	.	4e\	.	.	00a\	-ti-	.
4F\	Ca-	.	4A/	Ca-	.	4A/	-sti	.	.	.	.
4F\	-pti-	.	4A/	-pti-	.	2r	.	.	.	.	.
4E\	-vi-	.	4G/	-vi-	.	.	.	.	.	.	.
=88	=88	=88	=88	=88	=88	=88	=88	=88	=88-	=88	=88
2D/	-ta-	.	2F/	-ta-	.	4r	.	.	.	.	.
.	.	.	.	.	.	4f\	Ca-	.	.	.	.
*	*	*	*custos:d	*	*	*	*	*	*	*	*
2C#X/	-tem	.	2A/	-tem	.	4e\	-pti-	.	.	.	.
.	.	.	.	.	.	4e\	-vi-	.	.	.	.
=89	=89	=89	=89	=89	=89	=89	=89	=89	=89-	=89	=89
!	!	!	!LO:LB:g=original	!	!	!	!	!	!	!	!
1D\	Ja-	.	1d\	Ja-	.	2.f\	-ta-	.	.	.	.
.	.	.	.	.	.	8e\L	.	.	.	.	.
.	.	.	.	.	.	8d\J	.	.	.	.	.
=90	=90	=90	=90	=90	=90	=90-	=90	=90	=90-	=90	=90
4AA,</	-cob	.	4c,<\	-cob	.	1e\	-tem	.	.	.	.
4A\	Ca-	.	4c\	ca-	.	.	.	.	.	.	.
4A\	-pti-	.	4c\	-pti-	.	.	.	.	.	.	.
4G\	-vi-	.	4Bn\	-vi-	.	.	.	.	.	.	.
=91	=91	=91	=91	=91	=91	=91	=91	=91	=91-	=91	=91
2.F\	-ta-	.	4A\	-ta-	.	4r	.	.	1.a\,<	-sti	.
.	.	.	4B\	.	.	4a\	Ca-	.	.	.	.
.	.	.	2c#X\	-tem	.	4a\	-pti-	.	.	.	.
4E,<\	-tem	.	.	.	.	4g\	-vi-	.	.	.	.
=92	=92	=92	=92	=92	=92	=92-	=92	=92	=92-	=92	=92
(4D\	Ja-	.	1.d\	Ja-	.	2f\	-ta-	.	.	.	.
4E\)	.	.	.	.	.	.	.	.	.	.	.
(4F\	.	.	.	.	.	2f\	-tem	.	2a\	Ca-	.
4G\)	.	.	.	.	.	.	.	.	.	.	.
=93	=93	=93	=93-	=93	=93	=93-	=93	=93	=93	=93	=93
2A\	.	.	.	.	.	1e\	Ja-	.	2a\	-pti-	.
*custos:D	*	*	*	*	*	*	*	*	*	*	*
2AA,</	-cob,	.	2c#X\	.	.	.	.	.	2a\	-vi-	.
=94	=94	=94	=94	=94	=94	=94	=94	=94	=94-	=94	=94
!LO:LB:g=original	!	!	!	!	!	!	!	!	!	!	!
4r	.	.	2d\	-cob	.	4d,<\	-cob	.	1a\	-ta-	.
4D/	ca-	.	.	.	.	4f\	Ca-	.	.	.	.
4D/	-pti-	.	2r	.	.	4f\	-pti-	.	.	.	.
4C/	-vi-	.	.	.	.	4e\	-vi-	.	.	.	.
=95	=95	=95	=95	=95	=95	=95-	=95	=95	=95-	=95	=95
2BB-X/	-ta-	.	4r	.	.	2d\	-ta-	.	1g\,<	-tem	.
.	.	.	4G/	ca-	.	.	.	.	.	.	.
2C,</	-tem	.	4G/	-pti-	.	2e\	-tem	.	.	.	.
.	.	.	4E/	-vi-	.	.	.	.	.	.	.
=96	=96	=96	=96	=96	=96	=96	=96	=96	=96	=96	=96
2.F\	Ja-	.	2.A\	-ta-	.	2.c/	Ja-	.	1f/	Ja-	.
4G\	.	.	4A\	-tem	.	4Bn/	.	.	.	.	.
=97	=97	=97	=97	=97	=97	=97-	=97	=97	=97-	=97	=97
2A\	.	.	0A\	Ja-	.	2c#X\	.	.	2e/	.	.
2D/	.	.	.	.	.	1d\	.	.	2d/	.	.
=98	=98	=98	=98-	=98	=98	=98-	=98	=98	=98	=98	=98
2A\	.	.	.	.	.	.	.	.	1e/	.	.
2AA/	.	.	.	.	.	2c#X\	.	.	.	.	.
=99	=99	=99	=99-	=99	=99	=99	=99	=99	=99-	=99	=99
4D,</	-cob	.	1A\	-cob	.	4d,<\	-cob	.	1d/	-cob.	.
4D/	ca-	.	.	.	.	4f\	ca-	.	.	.	.
4D/	-pti-	.	.	.	.	4f\	-pti-	.	.	.	.
4C/	-vi-	.	.	.	.	4e\	-vi-	.	.	.	.
=100	=100	=100	=100	=100	=100	=100	=100	=100	=100	=100	=100
2BB-X/	-ta-	.	1r	.	.	(4d\	-ta-	.	4r	.	.
.	.	.	.	.	.	4e\	.	.	4dd\	Ca-	.
2AA/	-tem	.	.	.	.	2f#X\)	.	.	4dd\	-pti-	.
.	.	.	.	.	.	.	.	.	4cc\	-vi-	.
=101	=101	=101	=101	=101	=101	=101	=101	=101	=101	=101	=101
2G\	Ja-	.	4r	.	.	2g\	.	.	2b-X\	-ta-	.
.	.	.	4d\	ca-	.	.	.	.	.	.	.
2F#X\	.	.	4d\	-pti-	.	2d\	-tem	.	2a\	-tem	.
.	.	.	4c\	-vi-	.	.	.	.	.	.	.
=102	=102	=102	=102	=102	=102	=102	=102	=102	=102	=102	=102
1G\	.	.	4B-X\	-ta-	.	1d\	Ja-	.	1b-X\	Ja-	.
.	.	.	4A,<\	-tem	.	.	.	.	.	.	.
.	.	.	1G/	Ja-	.	.	.	.	.	.	.
=103	=103	=103	=103-	=103	=103	=103-	=103	=103	=103-	=103	=103
*	*	*	*	*	*	*	*	*	*custos:a	*	*
0D\;	-cob.	.	.	.	.	0d\	-cob.	.	0a\;	-cob.	.
.	.	.	4F#X/	.	.	.	.	.	.	.	.
.	.	.	4E/	.	.	.	.	.	.	.	.
=104-	=104	=104	=104	=104	=104	=104-	=104	=104	=104-	=104	=104
!	!	!	!LO:N:vis=0	!	!	!LO:TX:b:t=3\n2	!	!	!LO:TX:b:i:t=verte	!	!
.	.	.	1F#X/;	-cob.	.	.	.	.	.	.	.
=105||	=105||	=105||	=105||	=105||	=105||	=105||	=105||	=105||	=105||	=105||	=105||
*M3/2	*	*	*M3/2	*	*	*M3/2	*	*	*M3/2	*	*
!	!	!	!LO:PB:g=original	!	!	!LO:TX:t=P:♮above:problem	!	!	!LO:PB:g=original	!	!
!LO:PB:g=original	!	!	!	!	!	!LO:PB:g=original	!	!	!	!	!
2.D/	Glo-	.	2.d\	Glo-	.	2.fn\	Glo-	.	2.a\	Glo-	.
4D/	-ri-	.	4d\	-ri-	.	4f\	-ri-	.	4a\	-ri-	.
2C#X/	-a	.	2A/	-a	.	2e\	-a	.	2a\	-a	.
=106	=106	=106	=106	=106	=106	=106	=106	=106	=106	=106	=106
2D/	Pa-	.	2d\	Pa-	.	2f\	Pa-	.	2a\	Pa-	.
2GG,</	-tri	.	2d\	-tri	.	2f,<\	-tri	.	2b-X,<\	-tri	.
2BB-X/	et	.	2d\	et	.	2g\	et	.	2g/	et	.
=107	=107	=107	=107	=107	=107	=107	=107	=107	=107	=107	=107
1AA/	Fi-	.	2.c#X\	Fi-	.	1e\	Fi-	.	2.a\	Fi-	.
.	.	.	4c#\	-li-	.	.	.	.	4a\	-li-	.
2AA/	-li-	.	2c#\	-o	.	2e\	-li-	.	2a\	-o	.
=108	=108	=108	=108	=108	=108	=108	=108	=108	=108	=108	=108
1.AA/	-o	.	2r	.	.	1.e\,<	-o	.	4ee\	Glo-	.
.	.	.	.	.	.	.	.	.	4ff\	.	.
.	.	.	2.e\	et	.	.	.	.	4ee\	.	.
.	.	.	.	.	.	.	.	.	4dd\	.	.
.	.	.	.	.	.	.	.	.	4cc\	.	.
.	.	.	4d\	Spi-	.	.	.	.	4bn\	.	.
=109	=109	=109	=109	=109	=109	=109	=109	=109	=109	=109	=109
2r	.	.	2.cn\	-ri-	.	1.r	.	.	2.a\	.	.
2.A\	et	.	.	.	.	.	.	.	.	.	.
.	.	.	4B\	-tu-	.	.	.	.	4a\	-ri-	.
.	.	.	2A/	-i	.	.	.	.	2a\	-a	.
4G\	Spi-	.	.	.	.	.	.	.	.	.	.
=110	=110	=110	=110	=110	=110	=110	=110	=110	=110|!	=110	=110
!	!	!	!	!	!	!	!	!	!LO:N:vis=0	!	!
2.F\	-ri-	.	2d\	San-	.	2r	.	.	0.r	.	.
.	.	.	2A/	.	.	2.a\	et	.	.	.	.
4E\	-tu-	.	.	.	.	.	.	.	.	.	.
[2D/	-i	.	[<2d\	.	.	.	.	.	.	.	.
.	.	.	.	.	.	4g\	Spi-	.	.	.	.
=111	=111	=111	=111	=111	=111	=111	=111	=111	=111	=111	=111
!	!	!	!LO:N:xstem:cue	!	!	!	!	!	!	!	!
2D/],<	.	.	4d\]	.	.	4f\	-ri-	.	.	.	.
.	.	.	4c\	.	.	4e\	-tu-	.	.	.	.
2G\	San-	.	2B\	.	.	1d\,<	-i	.	.	.	.
2F\	.	.	2A/	.	.	.	.	.	.	.	.
=112	=112	=112	=112	=112	=112	=112	=112	=112	=112	=112	=112
[<1.E\	.	.	1G#X/	.	.	2.e\	San-	.	2r	.	.
.	.	.	.	.	.	.	.	.	2.ee\	et	.
.	.	.	.	.	.	4d\	.	.	.	.	.
.	.	.	2A/	.	.	4c/	.	.	.	.	.
.	.	.	.	.	.	4B/	.	.	4dd\	Spi-	.
=113	=113	=113	=113	=113	=113	=113	=113	=113	=113	=113	=113
1.E\_<	.	.	2E/	.	.	4A/	.	.	2.cc\	-ri-	.
.	.	.	.	.	.	4B/	.	.	.	.	.
.	.	.	2A\	.	.	4c/	.	.	.	.	.
.	.	.	.	.	.	4d/	.	.	4cc\	-tu-	.
*	*	*	*custos:c	*	*	*	*	*	*	*	*
.	.	.	2B\	.	.	2e\	.	.	2b\	-i	.
=114	=114	=114	=114	=114	=114	=114	=114	=114	=114	=114	=114
!	!	!	!LO:LB:g=original	!	!	!	!	!	!	!	!
1.E\]	.	.	2c\	.	.	1.e\	.	.	(4a\	San-	.
.	.	.	.	.	.	.	.	.	4b\	.	.
.	.	.	2A/	.	.	.	.	.	4cc\)	.	.
.	.	.	.	.	.	.	.	.	4dd\	.	.
.	.	.	2G#X/	.	.	.	.	.	2ee\	.	.
=115-	=115	=115	=115	=115	=115	=115	=115	=115	=115	=115	=115
1.AA/	-cto.	.	1.A\	-cto.	.	1.e\	-cto.	.	1.cc#X\;	-cto.	.
=116||	=116||	=116||	=116||	=116||	=116||	=116||	=116||	=116||	=116||	=116||	=116||
*M2/2	*	*	*M2/2	*	*	*M2/2	*	*	*M2/2	*	*
*met(c|)	*	*	*met(c|)	*	*	*met(c|)	*	*	*met(c|)	*	*
4F\	Si-	.	4A/	Si-	.	1r	.	.	2ccn\	Si-	.
4F\	-cut	.	4A/	-cut	.	.	.	.	.	.	.
*	*	*	*	*	*	*	*	*	*custos:f	*	*
4F\	e-	.	4A/	e-	.	.	.	.	2cc\	-cut	.
4E\	-rat	.	4A/	-rat	.	.	.	.	.	.	.
=117	=117	=117	=117	=117	=117	=117	=117	=117	=117	=117	=117
!	!	!	!	!	!	!	!	!	!LO:LB:g=original	!	!
2D/	in	.	2A/	in	.	4f\	Si-	.	2f/	e-	.
.	.	.	.	.	.	4f\	-cut	.	.	.	.
*custos:BB-	*	*	*	*	*	*	*	*	*	*	*
2C/	prin-	.	2A/	prin-	.	4e\	e-	.	2f/	-rat	.
*	*	*	*	*	*	*custos:f	*	*	*	*	*
.	.	.	.	.	.	4e\	-rat	.	.	.	.
=118	=118	=118	=118	=118	=118	=118	=118	=118	=118	=118	=118
!LO:LB:g=original	!	!	!	!	!	!LO:LB:g=original	!	!	!	!	!
2.BB-X/	-ci-	.	2.d\	-ci-	.	4f\	in	.	2g\	in	.
.	.	.	.	.	.	4d\	prin-	.	.	.	.
.	.	.	.	.	.	4g\	-ci-	.	2g\	prin-	.
4BB-/	-pi-	.	4d\	-pi-	.	4g\	-pi-	.	.	.	.
=119	=119	=119	=119	=119	=119	=119	=119	=119	=119	=119	=119
4AA,</	-o	.	4c#X,<\	-o	.	(4e\	-o	.	2.a\	-ci-	.
4F\	et	.	4A/	et	.	4c\)	.	.	.	.	.
4F\	nunc	.	4A/	nunc	.	2r	.	.	.	.	.
4E\	et	.	4G/	et	.	.	.	.	4a\	-pi-	.
=120	=120	=120	=120	=120	=120	=120	=120	=120	=120	=120	=120
(2D/	sem-	.	2F/	sem-	.	4r	.	.	2a,<\	-o	.
.	.	.	.	.	.	4f\	et	.	.	.	.
2C#X/)	.	.	2A\	.	.	4e\	nunc	.	2a\	et	.
.	.	.	.	.	.	4e\	et	.	.	.	.
=121	=121	=121	=121	=121	=121	=121	=121	=121	=121	=121	=121
1D\	.	.	1d\	.	.	2.f\	sem-	.	2a\	nunc	.
.	.	.	.	.	.	.	.	.	2a\	et	.
.	.	.	.	.	.	8e\L	.	.	.	.	.
.	.	.	.	.	.	8d\J	.	.	.	.	.
=122-	=122	=122	=122	=122	=122	=122	=122	=122	=122	=122	=122
2AA,</	-per	.	2c,<\	-per	.	1e\,<	-per	.	1.a\	sem-	.
4A\	et	.	4c\	et	.	.	.	.	.	.	.
4G\	in	.	4B\	in	.	.	.	.	.	.	.
=123	=123	=123	=123	=123	=123	=123	=123	=123	=123-	=123	=123
2F\	sae-	.	4A\	sae-	.	2r	.	.	.	.	.
.	.	.	4B\	.	.	.	.	.	.	.	.
4F\	-cu-	.	2c#X\	.	.	4a\	et	.	2a\	-per	.
4E\	-la	.	.	.	.	4g\	in	.	.	.	.
=124	=124	=124	=124	=124	=124	=124	=124	=124	=124	=124	=124
(4D\	sae-	.	1.d\	.	.	2f\	sae-	.	2r	.	.
4E\)	.	.	.	.	.	.	.	.	.	.	.
(4F\	-cu-	.	.	.	.	4f\	-cu-	.	4a\	et	.
4G\)	.	.	.	.	.	4f\	-la	.	4a\	in	.
=125	=125	=125	=125-	=125	=125	=125	=125	=125	=125	=125	=125
2A\	-lo-	.	.	.	.	4e\	sae-	.	2a\	sae-	.
.	.	.	.	.	.	4e\	-cu-	.	.	.	.
2AA/	.	.	2c#X\	-cu-	.	2e\	-lo-	.	4a\	-cu-	.
.	.	.	.	.	.	.	.	.	4a\	-la	.
=126	=126	=126	=126	=126	=126	=126	=126	=126	=126	=126	=126
2D,</	-rum	.	1d\	-la	.	2d,<\	-rum	.	1a\	sae-	.
4D/	sae-	.	.	.	.	4f\	sae-	.	.	.	.
4C/	-cu-	.	.	.	.	4e\	-cu-	.	.	.	.
=127	=127	=127	=127	=127	=127	=127	=127	=127	=127-	=127	=127
!	!	!	!LO:LB:g=original	!	!	!	!	!	!	!	!
2BB-X/	-lo-	.	1r	.	.	2d\	-lo-	.	1g\	-cu-	.
2C/	-rum	.	.	.	.	2e\	-rum	.	.	.	.
=128	=128	=128	=128	=128	=128	=128	=128	=128	=128-	=128	=128
2.F\	A-	.	2A/	sae-	.	2.c/	A-	.	1f/	-lo-	.
.	.	.	2A/	-cu-	.	.	.	.	.	.	.
4G\	.	.	.	.	.	4Bn/	.	.	.	.	.
=129	=129	=129	=129	=129	=129	=129	=129	=129	=129-	=129	=129
2A\	.	.	0A\	-lo-	.	2c#X\	.	.	2e/	-rum	.
2D/	-men	.	.	.	.	1d\	.	.	2d/	.	.
=130	=130	=130	=130-	=130	=130	=130-	=130	=130	=130	=130	=130
*	*ij	*	*	*	*	*	*	*	*	*	*
1AA/	A-	.	.	.	.	.	.	.	1e/	a-	.
*	*	*	*	*	*	*custos:d	*	*	*	*	*
.	.	.	.	.	.	2c#X\	.	.	.	.	.
=131	=131	=131	=131-	=131	=131	=131	=131	=131	=131-	=131	=131
!	!	!	!	!	!	!LO:LB:g=original	!	!	!	!	!
2D,</	-men	.	1A\	-rum	.	2d,<\	-men,	.	1d/	-men	.
*	*Xij	*	*	*	*	*	*	*	*	*	*
4D/	A-	.	.	.	.	4f\	A-	.	.	.	.
4C/	.	.	.	.	.	4e\	.	.	.	.	.
=132	=132	=132	=132	=132	=132	=132	=132	=132	=132	=132	=132
2BB-X/	.	.	1r	.	.	4d\	.	.	2r	.	.
.	.	.	.	.	.	4e\	.	.	.	.	.
2AA/	.	.	.	.	.	2f#X\	.	.	(4dd\	a-	.
.	.	.	.	.	.	.	.	.	4cc\)	.	.
=133	=133	=133	=133	=133	=133	=133	=133	=133	=133	=133	=133
!LO:LB:g=original	!	!	!	!	!	!	!	!	!	!	!
2G\	.	.	2r	.	.	2g\	.	.	2b-X\	.	.
2F#X\	-men	.	4d\	A-	.	2d,<\	-men	.	2a\	-men	.
.	.	.	4c\	.	.	.	.	.	.	.	.
=134	=134	=134	=134	=134	=134	=134	=134	=134	=134	=134	=134
1G\	A-	.	4B-X\	.	.	1d\	A-	.	1b-X\	a-	.
.	.	.	4A\	.	.	.	.	.	.	.	.
.	.	.	1G/	.	.	.	.	.	.	.	.
=135-	=135	=135	=135-	=135	=135	=135-	=135	=135	=135-	=135	=135
0D\;	-men.	.	.	.	.	0d\;	-men.	.	0a\;	-men	.
.	.	.	4F#X/	.	.	.	.	.	.	.	.
.	.	.	4E/	.	.	.	.	.	.	.	.
=136-	=136	=136	=136	=136	=136	=136-	=136	=136	=136-	=136	=136
!	!	!	!LO:N:vis=0	!	!	!	!	!	!	!	!
.	.	.	1F#X/;	-men.	.	.	.	.	.	.	.
==	==	==	==	==	==	==	==	==	==	==	==
*-	*-	*-	*-	*-	*-	*-	*-	*-	*-	*-	*-
!!!system-decoration: [(s1,s2,s3,s4)]
!!!RDF**kern: l = terminal long
!!!RDF**kern: > = above
!!!RDF**kern: < = below
!!!EED: Andrzej Borzym
!!!EEV: 2021-03-28
!!!ENC: Andrzej Borzym
!!!END: 2021-03-10
